public/assets/img/icon/service-icon_2-4.svg

<svg width="55" height="55" viewBox="0 0 55 55" fill="none" xmlns="http://www.w3.org/2000/svg">
<path d="M53.939 38.9447L53.2258 37.8758V35.5773C53.2258 33.6373 52.7672 31.6955 51.9005 29.9603C50.8892 27.9404 49.3314 26.2568 47.394 25.0947C46.1459 24.346 44.7185 23.9512 43.2646 23.9512C42.4769 23.9512 41.7237 24.1304 41.0362 24.4462C40.4906 24.0595 40.1198 23.4873 39.9832 22.8371L42.02 22.2817C46.5282 21.0514 49.6774 16.93 49.6774 12.2568C49.6774 7.45504 45.7706 3.54833 40.9315 3.54833C37.801 3.54833 34.8913 5.23645 33.338 7.95447L32.8031 8.89034C32.4456 9.51751 31.8379 9.97702 31.138 10.1518L30.1826 10.3913C29.126 10.6547 28.3871 11.6013 28.3871 12.6915C28.3871 13.3249 28.6337 13.921 29.0817 14.369L29.1456 14.4337L28.6665 15.8699C28.4811 16.4297 28.3871 17.0107 28.3871 17.5979C28.3871 20.2246 30.25 22.4237 32.7241 22.9453C32.5804 23.5574 32.2761 24.1304 31.8281 24.5784L30.6811 25.7254H30.3742C29.7373 25.7254 29.1331 25.8868 28.5965 26.1689L28.5033 26.1219C25.1935 24.4666 21.1058 24.4515 17.7739 26.0589C17.7606 25.878 17.7419 25.697 17.7419 25.516V13.575L18.6219 12.255C18.9528 11.7592 19.1844 11.2136 19.3334 10.6459H21.2903V14.1942C21.2903 15.1727 22.086 15.9684 23.0645 15.9684H24.8387C25.8172 15.9684 26.6129 15.1727 26.6129 14.1942V1.77416C26.6129 0.795713 25.8172 0 24.8387 0H23.0645C22.086 0 21.2903 0.795713 21.2903 1.77416V5.32249H19.5161V3.54833C19.5161 2.56988 18.7204 1.77416 17.7419 1.77416C16.3146 1.77416 15.0806 2.62133 14.5182 3.84018C14.1545 3.65389 13.742 3.54833 13.3065 3.54833H9.75806C8.60306 3.54833 7.62726 4.29259 7.26 5.32249H5.32258V1.77416C5.32258 0.795713 4.52685 0 3.54839 0H1.77419C0.795726 0 0 0.795713 0 1.77416V14.1933C0 15.1718 0.795726 15.9675 1.77419 15.9675H3.54839C4.52685 15.9675 5.32258 15.1718 5.32258 14.1933V10.645H7.1846C7.37444 11.7051 7.87831 12.6808 8.65629 13.4588L8.87097 13.6735V30.6567C8.87097 34.3186 11.7301 37.4251 15.3787 37.7294L20.1921 38.1304C21.2779 38.7078 22.4977 39.0316 23.7511 39.0316C24.5681 39.0316 25.3754 38.9012 26.149 38.6431L26.4683 38.5366C26.7069 39.2827 26.997 40.0127 27.3474 40.7135C28.0287 42.0708 28.3871 43.5912 28.3871 45.1117V51.3718C28.3871 53.3722 30.0149 55 32.0153 55C33.2617 55 34.5098 54.7055 35.6214 54.1484L39.3791 52.2696L50.9398 48.1899C53.3686 47.3312 55 45.0256 55 42.4504C55 41.1979 54.6327 39.9852 53.939 38.9447ZM23.0645 1.77416H24.8387L24.8405 14.1933H23.0645V1.77416ZM21.2903 7.09666V8.87082H19.5161V7.09666H21.2903ZM40.9688 5.32249C44.7922 5.32249 47.9032 8.43349 47.9032 12.2568C47.9032 16.1316 45.2925 19.5504 41.5543 20.5697L39.9194 21.0159V18.996L41.7698 17.1455C42.2852 16.6301 42.5806 15.9169 42.5806 15.1877C42.5806 13.6886 41.3822 12.4635 39.8927 12.42C39.686 10.3496 38.2862 8.57454 36.2805 7.90568L35.6985 7.71141C37.0079 6.21933 38.9125 5.32249 40.9688 5.32249ZM31.9355 26.9797L33.0825 25.8327C33.8339 25.0814 34.3306 24.1038 34.5143 23.0641H36.371V21.29H33.8534C31.8175 21.29 30.1613 19.6338 30.1613 17.5979C30.1613 17.2014 30.2252 16.8076 30.3502 16.4305L31.177 13.9538L30.3369 13.1146C30.2252 13.002 30.1613 12.8485 30.1613 12.6915C30.1613 12.4165 30.3476 12.1779 30.6137 12.1122L31.5682 11.8727C32.7356 11.5817 33.7469 10.8153 34.344 9.77033L34.6509 9.23275L35.719 9.58847C37.1694 10.0719 38.1452 11.4247 38.1452 12.955V14.1933H39.812C40.3602 14.1933 40.8065 14.6395 40.8065 15.1877C40.8065 15.4494 40.7009 15.7058 40.5155 15.8912L38.1452 18.2615V22.2809C38.1452 23.5237 38.6561 24.6706 39.5246 25.4921C39.2363 25.7786 38.9737 26.0962 38.7519 26.4519L36.6247 29.8556C36.1581 30.6017 35.3544 31.0479 34.4726 31.0479C33.0736 31.0479 31.9355 29.9098 31.9355 28.5108V26.9797ZM8.87097 6.20958C8.87097 5.71991 9.26839 5.32249 9.75806 5.32249H13.3065C13.7961 5.32249 14.1935 5.71991 14.1935 6.20958V7.98374C14.1935 8.47341 13.7961 8.87082 13.3065 8.87082H9.75806C9.26839 8.87082 8.87097 8.47341 8.87097 7.98374V6.20958ZM1.77419 14.1933V1.77416H3.54839L3.55016 14.1933H1.77419ZM5.32258 7.09666H7.09677V8.87082H5.32258V7.09666ZM25.5892 36.9594C24.9957 37.1572 24.3774 37.2575 23.7511 37.2575C21.9326 37.2575 20.1948 36.389 19.1036 34.9342L18.4516 34.064L17.0323 35.1285L17.6843 35.9987C17.7251 36.0528 17.7721 36.0998 17.8147 36.1522L15.526 35.9614C12.7893 35.7326 10.6452 33.4022 10.6452 30.6567V12.939L9.91064 12.2045C9.43871 11.7326 9.12556 11.148 8.97653 10.5146C9.22492 10.5918 9.48395 10.645 9.75806 10.645H13.3065C14.7737 10.645 15.9677 9.45098 15.9677 7.98374V5.32249C15.9677 4.34404 16.7635 3.54833 17.7419 3.54833V9.30195C17.7419 10.0054 17.5361 10.6858 17.1458 11.2704L15.9677 13.0375V25.5152C15.9677 26.9487 16.3066 28.3849 16.948 29.6702L18.535 28.8763C18.3709 28.5481 18.2405 28.2039 18.126 27.8544L18.4188 27.708C21.1111 26.3614 24.4031 26.2958 27.1682 27.4783C27.0369 27.6823 26.9172 27.8961 26.824 28.1276C26.0957 29.9523 25.7258 31.8738 25.7258 33.8378C25.7258 34.8366 25.8305 35.8346 26.0248 36.8148L25.5892 36.9594ZM27.5 33.8378C27.5 32.1 27.8273 30.4012 28.4731 28.7885C28.7588 28.0744 29.4108 27.6113 30.1613 27.5324V28.5117C30.1613 30.8891 32.096 32.8229 34.4726 32.8229C35.97 32.8229 37.337 32.0654 38.1283 30.7968L40.2547 27.394C40.9076 26.3499 42.0324 25.7263 43.2646 25.7263C44.3965 25.7263 45.5081 26.035 46.4803 26.6169C46.5096 26.6347 46.5389 26.6524 46.5681 26.6701C44.0967 26.9558 41.863 28.3086 40.4631 30.4083C39.5273 31.8117 39.0323 33.4457 39.0323 35.1329C39.0323 37.8483 40.4782 40.4004 42.806 41.7976L42.8432 41.8197L37.9491 46.0147L36.1164 45.4044C35.7944 45.2962 35.4573 45.2412 35.1148 45.2412C33.9102 45.2412 32.8261 45.911 32.2877 46.9879L32.1608 47.2416L30.3919 48.1251C30.3112 48.1659 30.2376 48.2156 30.1604 48.2617V45.1117C30.1604 43.318 29.7364 41.5217 28.9344 39.9196C27.9968 38.0416 27.5 35.9384 27.5 33.8378ZM50.3498 46.5159L38.7369 50.6143L34.8274 52.5605C33.9598 52.9952 32.9885 53.2249 32.0153 53.2249C30.9934 53.2249 30.1613 52.3938 30.1613 51.3709C30.1613 50.6639 30.5534 50.0279 31.1859 49.7121L33.4835 48.5642L33.8747 47.7818C34.1115 47.309 34.5861 47.0154 35.1148 47.0154C35.2648 47.0154 35.412 47.0384 35.5531 47.0863L38.3412 48.016L45.8664 41.566L43.7188 40.2771C41.9224 39.1984 40.8065 37.2282 40.8065 35.1329C40.8065 33.797 41.1977 32.5027 41.9393 31.3903C43.1936 29.5097 45.2925 28.3866 47.5528 28.3866H48.6697C49.3235 29.0892 49.8779 29.884 50.3135 30.7543C51.0586 32.2446 51.4516 33.9123 51.4516 35.5782V38.4133L52.4629 39.9294C52.9623 40.6781 53.2258 41.5501 53.2258 42.4513C53.2258 44.2752 52.0699 45.9083 50.3498 46.5159Z" fill="#F41E1E"/>
</svg>

<?xml version="1.0" encoding="UTF-8"?>
<svg id="Camada_1" data-name="Camada 1" xmlns="http://www.w3.org/2000/svg" viewBox="0 0 55 55">
  <defs>
    <style>
      .cls-1 {
        fill: #f1c40f;
      }
    </style>
  </defs>
  <path class="cls-1" d="M53.94,38.94l-.71-1.07v-2.3c0-1.94-.46-3.88-1.33-5.62-1.01-2.02-2.57-3.7-4.51-4.87-1.25-.75-2.68-1.14-4.13-1.14-.79,0-1.54,.18-2.23,.49-.55-.39-.92-.96-1.05-1.61l2.04-.56c4.51-1.23,7.66-5.35,7.66-10.02s-3.91-8.71-8.75-8.71c-3.13,0-6.04,1.69-7.59,4.41l-.53,.94c-.36,.63-.97,1.09-1.67,1.26l-.96,.24c-1.06,.26-1.8,1.21-1.8,2.3,0,.63,.25,1.23,.69,1.68l.06,.06-.48,1.44c-.19,.56-.28,1.14-.28,1.73,0,2.63,1.86,4.83,4.34,5.35-.14,.61-.45,1.19-.9,1.63l-1.15,1.15h-.31c-.64,0-1.24,.16-1.78,.44l-.09-.05c-3.31-1.66-7.4-1.67-10.73-.06-.01-.18-.03-.36-.03-.54V13.57l.88-1.32c.33-.5,.56-1.04,.71-1.61h1.96v3.55c0,.98,.8,1.77,1.77,1.77h1.77c.98,0,1.77-.8,1.77-1.77V1.77c0-.98-.8-1.77-1.77-1.77h-1.77c-.98,0-1.77,.8-1.77,1.77v3.55h-1.77v-1.77c0-.98-.8-1.77-1.77-1.77-1.43,0-2.66,.85-3.22,2.07-.36-.19-.78-.29-1.21-.29h-3.55c-1.16,0-2.13,.74-2.5,1.77h-1.94V1.77c0-.98-.8-1.77-1.77-1.77H1.77C.8,0,0,.8,0,1.77V14.19c0,.98,.8,1.77,1.77,1.77h1.77c.98,0,1.77-.8,1.77-1.77v-3.55h1.86c.19,1.06,.69,2.04,1.47,2.81l.21,.21V30.66c0,3.66,2.86,6.77,6.51,7.07l4.81,.4c1.09,.58,2.31,.9,3.56,.9,.82,0,1.62-.13,2.4-.39l.32-.11c.24,.75,.53,1.48,.88,2.18,.68,1.36,1.04,2.88,1.04,4.4v6.26c0,2,1.63,3.63,3.63,3.63,1.25,0,2.49-.29,3.61-.85l3.76-1.88,11.56-4.08c2.43-.86,4.06-3.16,4.06-5.74,0-1.25-.37-2.47-1.06-3.51ZM23.06,1.77h1.77V14.19s-1.77,0-1.77,0V1.77Zm-1.77,5.32v1.77h-1.77v-1.77h1.77Zm19.68-1.77c3.82,0,6.93,3.11,6.93,6.93s-2.61,7.29-6.35,8.31l-1.63,.45v-2.02l1.85-1.85c.52-.52,.81-1.23,.81-1.96,0-1.5-1.2-2.72-2.69-2.77-.21-2.07-1.61-3.85-3.61-4.51l-.58-.19c1.31-1.49,3.21-2.39,5.27-2.39Zm-9.03,21.66l1.15-1.15c.75-.75,1.25-1.73,1.43-2.77h1.86v-1.77h-2.52c-2.04,0-3.69-1.66-3.69-3.69,0-.4,.06-.79,.19-1.17l.83-2.48-.84-.84c-.11-.11-.18-.27-.18-.42,0-.27,.19-.51,.45-.58l.95-.24c1.17-.29,2.18-1.06,2.78-2.1l.31-.54,1.07,.36c1.45,.48,2.43,1.84,2.43,3.37v1.24h1.67c.55,0,.99,.45,.99,.99,0,.26-.11,.52-.29,.7l-2.37,2.37v4.02c0,1.24,.51,2.39,1.38,3.21-.29,.29-.55,.6-.77,.96l-2.13,3.4c-.47,.75-1.27,1.19-2.15,1.19-1.4,0-2.54-1.14-2.54-2.54v-1.53ZM8.87,6.21c0-.49,.4-.89,.89-.89h3.55c.49,0,.89,.4,.89,.89v1.77c0,.49-.4,.89-.89,.89h-3.55c-.49,0-.89-.4-.89-.89v-1.77ZM1.77,14.19V1.77h1.77V14.19s-1.77,0-1.77,0Zm3.55-7.1h1.77v1.77h-1.77v-1.77Zm20.27,29.86c-.59,.2-1.21,.3-1.84,.3-1.82,0-3.56-.87-4.65-2.32l-.65-.87-1.42,1.06,.65,.87c.04,.05,.09,.1,.13,.15l-2.29-.19c-2.74-.23-4.88-2.56-4.88-5.3V12.94l-.73-.73c-.47-.47-.79-1.06-.93-1.69,.25,.08,.51,.13,.78,.13h3.55c1.47,0,2.66-1.19,2.66-2.66v-2.66c0-.98,.8-1.77,1.77-1.77v5.75c0,.7-.21,1.38-.6,1.97l-1.18,1.77v12.48c0,1.43,.34,2.87,.98,4.16l1.59-.79c-.16-.33-.29-.67-.41-1.02l.29-.15c2.69-1.35,5.98-1.41,8.75-.23-.13,.2-.25,.42-.34,.65-.73,1.82-1.1,3.75-1.1,5.71,0,1,.1,2,.3,2.98l-.44,.14Zm1.91-3.12c0-1.74,.33-3.44,.97-5.05,.29-.71,.94-1.18,1.69-1.26v.98c0,2.38,1.93,4.31,4.31,4.31,1.5,0,2.86-.76,3.66-2.03l2.13-3.4c.65-1.04,1.78-1.67,3.01-1.67,1.13,0,2.24,.31,3.22,.89,.03,.02,.06,.04,.09,.05-2.47,.29-4.71,1.64-6.1,3.74-.94,1.4-1.43,3.04-1.43,4.72,0,2.72,1.45,5.27,3.77,6.66l.04,.02-4.89,4.2-1.83-.61c-.32-.11-.66-.16-1-.16-1.2,0-2.29,.67-2.83,1.75l-.13,.25-1.77,.88c-.08,.04-.15,.09-.23,.14v-3.15c0-1.79-.42-3.59-1.23-5.19-.94-1.88-1.43-3.98-1.43-6.08Zm22.85,12.68l-11.61,4.1-3.91,1.95c-.87,.43-1.84,.66-2.81,.66-1.02,0-1.85-.83-1.85-1.85,0-.71,.39-1.34,1.02-1.66l2.3-1.15,.39-.78c.24-.47,.71-.77,1.24-.77,.15,0,.3,.02,.44,.07l2.79,.93,7.53-6.45-2.15-1.29c-1.8-1.08-2.91-3.05-2.91-5.14,0-1.34,.39-2.63,1.13-3.74,1.25-1.88,3.35-3,5.61-3h1.12c.65,.7,1.21,1.5,1.64,2.37,.75,1.49,1.14,3.16,1.14,4.82v2.84l1.01,1.52c.5,.75,.76,1.62,.76,2.52,0,1.82-1.16,3.46-2.88,4.06Z"/>
</svg>
